packages/icons/svg/Universe_Electricity_24px.svg

<svg xmlns="http://www.w3.org/2000/svg" viewBox="0 0 24 24"><path d="M21 2H3a1 1 0 00-1 1v18a1 1 0 001 1h18a1 1 0 001-1V3a1 1 0 00-1-1zm-1 18H4V4h16z"/><path d="M12 19a7 7 0 10-7-7 7 7 0 007 7zm0-13a6 6 0 11-6 6 6 6 0 016-6z"/><circle cx="15" cy="12" r="1"/><circle cx="9" cy="12" r="1"/></svg>

<svg xmlns="http://www.w3.org/2000/svg" viewBox="0 0 24 24"><defs></defs><g id="Calque_5" ><path  d="M21,2H3A1,1,0,0,0,2,3V21a1,1,0,0,0,1,1H21a1,1,0,0,0,1-1V3A1,1,0,0,0,21,2ZM20,20H4V4H20Z"/><path  d="M12,19a7,7,0,1,0-7-7A7,7,0,0,0,12,19ZM12,6a6,6,0,1,1-6,6A6,6,0,0,1,12,6Z"/><circle  cx="15" cy="12" r="1"/><circle  cx="9" cy="12" r="1"/></g></svg>
